X:233
T:B233-  In January last
Q:1/4=120
L:1/4
M:C|
K:G
g|d3/2B/2 (A/2B/2) (A/2G/2)|G2D2|E3/2G/2 (G/2A/2) (B/2G/2)|\
A3g|d3/2B/2 (A/2B/2) (A/2G/2)|(G/2A/2) (B/2A/2)D3/2D/2|\
(E/2F/2)GAB|g3B|c3/2d/2 (e/2d/2) (e/2=f/2)|=f2(e/2f/2) (g/2e/2)|\
(d/2e/2) (d/2B/2) (A/2B/2) (A/2G/2)|A3g|\
d3/2B/2 (A/2B/2) (A/2G/2)|G2D3/2D/2|\
(E/2F/2)G(B/2d3/2)|.g3|]

